public/images/cloud.svg

<?xml version="1.0" encoding="UTF-8" standalone="no"?>
<!DOCTYPE svg PUBLIC "-//W3C//DTD SVG 1.1//EN" "http://www.w3.org/Graphics/SVG/1.1/DTD/svg11.dtd">
<svg width="100%" height="100%" viewBox="0 0 1280 1280" version="1.1" xmlns="http://www.w3.org/2000/svg" xmlns:xlink="http://www.w3.org/1999/xlink" xml:space="preserve" xmlns:serif="http://www.serif.com/" style="fill-rule:evenodd;clip-rule:evenodd;stroke-linejoin:round;stroke-miterlimit:2;">
    <g transform="matrix(0.1,0,0,-0.1,0,1280)">
        <g transform="matrix(10,0,0,-10,0,12800)">
            <path d="M764.2,297.5C805.1,303.4 841.9,322.3 862.2,347.9C865.6,352.1 870.3,359.5 872.7,364.5C878.4,376.4 880.3,385.5 879.8,399.6L879.5,410.7L891,406.8C905.6,401.9 922,397.7 938,394.8C948.9,392.8 953.8,392.5 976,392.5C1004.2,392.6 1012.3,393.7 1030.7,400.1C1093.1,421.9 1116,480.4 1085.7,540.2L1080.3,550.8L1086.4,551.5C1105,553.5 1129.9,560.7 1144.5,568.3C1187.7,590.7 1202.2,632.9 1184.8,685.7C1173.5,720.1 1149,753.5 1127,764.5C1124,766 1121.4,767.3 1121.3,767.4C1121.2,767.5 1122.5,772 1124.1,777.5C1129.8,796.4 1131.1,804.5 1131.7,822.5C1132.1,836.9 1131.9,841 1130.2,849C1126.4,867.5 1119.2,881.4 1106.3,895C1092.8,909.2 1077.3,918.6 1055.1,926C1019.1,938 971.2,937.6 943.4,925C939.7,923.4 936.4,922 936,922C935.7,922 934.6,925.5 933.6,929.7C927.9,954 916.4,974.8 900,990.3C870.4,1018.3 825.3,1026.9 774.9,1014.1C724.5,1001.4 679.9,968.8 667.5,935.7C666.5,933.1 665.5,931 665.1,931C664.8,931 663.2,933 661.7,935.5C649.8,954.3 627.2,979.2 610.9,991.4C590.3,1007 571.7,1014.7 548.3,1017.1C513.8,1020.8 474.3,1004.2 445.3,973.7C431.8,959.5 420.3,940.3 417.9,927.8C417,923.1 416.4,921.9 415.1,922.3C414.2,922.6 407.4,924.6 400,926.9C346.2,943.3 297.9,945.1 259,932.1C219.2,918.7 192.4,889 188.1,853.3C187.1,845.2 187.9,832.1 189.9,825.3C190.4,823.6 190.6,821.9 190.2,821.6C189.9,821.3 187.2,821 184.1,821C170.3,821 147.4,815.2 133.5,808.2C104,793.4 84.2,767.7 77.6,735.8C75.3,724.8 75.5,704.9 78,693.7C84.6,663.7 104.9,637.5 132.6,623.3C136.7,621.2 139.8,619 139.6,618.5C139.4,617.9 136.3,613.5 132.6,608.7C124.9,598.5 115.1,578.9 112.1,568C105.6,544.2 107.9,521.2 119,498.4C138.9,457.4 187.1,426.4 236,423.1C258.4,421.6 278.4,425.2 296.6,433.9C305.2,438 307,438.6 306.5,437.1C306.2,436 305.5,431.7 305.1,427.5C301.7,397.2 319.1,371.7 355.5,353.9C385.7,339.1 421.4,331.8 463,331.8C523.5,331.9 566.9,349 580.4,378C581.8,381 583,384.3 583,385.2C583,388.6 584.5,386.9 588.9,378.5C603.8,349.8 632.5,323.6 663.8,310C694.1,296.9 729.1,292.5 764.2,297.5Z" style="fill:white;"/>
        </g>
        <path d="M7130,10060C6770,10016 6437,9888 6165,9688C6126,9660 6036,9577 5963,9505L5831,9372L5773,9416C5635,9519 5401,9615 5180,9659C4976,9699 4902,9705 4615,9705C4374,9705 4313,9701 4180,9681C3689,9608 3305,9444 3065,9205C2956,9097 2889,8993 2844,8863C2826,8811 2810,8766 2808,8765C2806,8763 2766,8768 2720,8777C2597,8800 2306,8800 2175,8776C1804,8709 1472,8535 1219,8274C1026,8074 909,7862 860,7620C841,7529 839,7493 843,7350C850,7127 891,6975 1001,6772L1053,6676L1009,6640C744,6427 572,6147 519,5840C503,5747 502,5549 518,5454C549,5264 638,5053 748,4905C929,4663 1218,4480 1541,4405L1617,4387L1624,4292C1665,3746 2105,3323 2764,3199C2905,3172 3246,3162 3412,3179C3587,3198 3863,3249 3981,3286C3994,3289 4008,3272 4038,3218C4256,2822 4721,2489 5159,2416C5278,2396 5491,2395 5601,2415C5943,2474 6252,2652 6535,2953L6629,3052L6714,2967C6835,2846 6974,2742 7129,2656C7581,2406 8110,2314 8550,2410C8954,2497 9270,2742 9454,3110C9483,3168 9511,3229 9517,3246L9528,3277L9616,3259C10023,3176 10522,3242 10882,3427C11255,3617 11489,3920 11556,4301C11588,4482 11574,4739 11520,4950L11501,5024L11538,5055C11838,5298 12082,5725 12151,6131C12180,6299 12174,6499 12135,6640C12040,6989 11786,7246 11390,7393C11337,7413 11264,7436 11226,7446C11166,7461 11159,7465 11164,7484C11167,7496 11183,7557 11200,7620C11256,7822 11253,8054 11193,8245C11021,8795 10428,9133 9680,9107C9499,9100 9307,9075 9144,9035C9086,9021 9037,9010 9034,9010C9032,9010 9030,9018 9030,9028C9030,9038 9021,9076 9009,9111C8859,9577 8377,9928 7735,10041C7599,10065 7260,10075 7130,10060ZM7642,9825C8051,9766 8419,9577 8622,9321C8656,9279 8703,9205 8727,9155C8784,9036 8803,8945 8798,8804L8795,8693L8910,8732C9056,8781 9220,8823 9380,8852C9489,8872 9538,8875 9760,8875C10042,8874 10123,8863 10307,8799C10931,8581 11160,7996 10857,7398L10803,7292L10864,7285C11050,7265 11299,7193 11445,7117C11877,6893 12022,6471 11848,5943C11735,5599 11490,5265 11270,5155C11240,5140 11214,5127 11213,5126C11212,5125 11225,5080 11241,5025C11298,4836 11311,4755 11317,4575C11321,4431 11319,4390 11302,4310C11264,4125 11192,3986 11063,3850C10928,3708 10773,3614 10551,3540C10191,3420 9712,3424 9434,3550C9397,3566 9364,3580 9360,3580C9357,3580 9346,3545 9336,3503C9279,3260 9164,3052 9000,2897C8704,2617 8253,2531 7749,2659C7245,2786 6799,3112 6675,3443C6665,3469 6655,3490 6651,3490C6648,3490 6632,3470 6617,3445C6498,3257 6272,3008 6109,2886C5903,2730 5717,2653 5483,2629C5138,2592 4743,2758 4453,3063C4318,3205 4203,3397 4179,3522C4170,3569 4164,3581 4151,3577C4142,3574 4074,3554 4000,3531C3462,3367 2979,3349 2590,3479C2192,3613 1924,3910 1881,4267C1871,4348 1879,4479 1899,4547C1904,4564 1906,4581 1902,4584C1899,4587 1872,4590 1841,4590C1703,4590 1474,4648 1335,4718C1040,4866 842,5123 776,5442C753,5552 755,5751 780,5863C846,6163 1049,6425 1326,6567C1367,6588 1398,6610 1396,6615C1394,6621 1363,6665 1326,6713C1249,6815 1151,7011 1121,7120C1056,7358 1079,7588 1190,7816C1389,8226 1871,8536 2360,8569C2584,8584 2784,8548 2966,8461C3052,8420 3070,8414 3065,8429C3062,8440 3055,8483 3051,8525C3017,8828 3191,9083 3555,9261C3857,9409 4214,9482 4630,9482C5235,9481 5669,9310 5804,9020C5818,8990 5830,8957 5830,8948C5830,8914 5845,8931 5889,9015C6038,9302 6325,9564 6638,9700C6941,9831 7291,9875 7642,9825Z" style="fill-rule:nonzero;"/>
    </g>
</svg>

<?xml version="1.0" standalone="no"?>
<!DOCTYPE svg PUBLIC "-//W3C//DTD SVG 20010904//EN"
 "http://www.w3.org/TR/2001/REC-SVG-20010904/DTD/svg10.dtd">
<svg version="1.0" xmlns="http://www.w3.org/2000/svg"
 width="1280.000000pt" height="1280.000000pt" viewBox="0 0 1280.000000 1280.000000"
 preserveAspectRatio="xMidYMid meet">
<metadata>
Created by potrace 1.15, written by Peter Selinger 2001-2017
</metadata>
<g transform="translate(0.000000,1280.000000) scale(0.100000,-0.100000)"
fill="#000000" stroke="none">
<path d="M7130 10060 c-360 -44 -693 -172 -965 -372 -39 -28 -129 -111 -202
-183 l-132 -133 -58 44 c-138 103 -372 199 -593 243 -204 40 -278 46 -565 46
-241 0 -302 -4 -435 -24 -491 -73 -875 -237 -1115 -476 -109 -108 -176 -212
-221 -342 -18 -52 -34 -97 -36 -98 -2 -2 -42 3 -88 12 -123 23 -414 23 -545
-1 -371 -67 -703 -241 -956 -502 -193 -200 -310 -412 -359 -654 -19 -91 -21
-127 -17 -270 7 -223 48 -375 158 -578 l52 -96 -44 -36 c-265 -213 -437 -493
-490 -800 -16 -93 -17 -291 -1 -386 31 -190 120 -401 230 -549 181 -242 470
-425 793 -500 l76 -18 7 -95 c41 -546 481 -969 1140 -1093 141 -27 482 -37
648 -20 175 19 451 70 569 107 13 3 27 -14 57 -68 218 -396 683 -729 1121
-802 119 -20 332 -21 442 -1 342 59 651 237 934 538 l94 99 85 -85 c121 -121
260 -225 415 -311 452 -250 981 -342 1421 -246 404 87 720 332 904 700 29 58
57 119 63 136 l11 31 88 -18 c407 -83 906 -17 1266 168 373 190 607 493 674
874 32 181 18 438 -36 649 l-19 74 37 31 c300 243 544 670 613 1076 29 168 23
368 -16 509 -95 349 -349 606 -745 753 -53 20 -126 43 -164 53 -60 15 -67 19
-62 38 3 12 19 73 36 136 56 202 53 434 -7 625 -172 550 -765 888 -1513 862
-181 -7 -373 -32 -536 -72 -58 -14 -107 -25 -110 -25 -2 0 -4 8 -4 18 0 10 -9
48 -21 83 -150 466 -632 817 -1274 930 -136 24 -475 34 -605 19z m512 -235
c409 -59 777 -248 980 -504 34 -42 81 -116 105 -166 57 -119 76 -210 71 -351
l-3 -111 115 39 c146 49 310 91 470 120 109 20 158 23 380 23 282 -1 363 -12
547 -76 624 -218 853 -803 550 -1401 l-54 -106 61 -7 c186 -20 435 -92 581
-168 432 -224 577 -646 403 -1174 -113 -344 -358 -678 -578 -788 -30 -15 -56
-28 -57 -29 -1 -1 12 -46 28 -101 57 -189 70 -270 76 -450 4 -144 2 -185 -15
-265 -38 -185 -110 -324 -239 -460 -135 -142 -290 -236 -512 -310 -360 -120
-839 -116 -1117 10 -37 16 -70 30 -74 30 -3 0 -14 -35 -24 -77 -57 -243 -172
-451 -336 -606 -296 -280 -747 -366 -1251 -238 -504 127 -950 453 -1074 784
-10 26 -20 47 -24 47 -3 0 -19 -20 -34 -45 -119 -188 -345 -437 -508 -559
-206 -156 -392 -233 -626 -257 -345 -37 -740 129 -1030 434 -135 142 -250 334
-274 459 -9 47 -15 59 -28 55 -9 -3 -77 -23 -151 -46 -538 -164 -1021 -182
-1410 -52 -398 134 -666 431 -709 788 -10 81 -2 212 18 280 5 17 7 34 3 37 -3
3 -30 6 -61 6 -138 0 -367 58 -506 128 -295 148 -493 405 -559 724 -23 110
-21 309 4 421 66 300 269 562 546 704 41 21 72 43 70 48 -2 6 -33 50 -70 98
-77 102 -175 298 -205 407 -65 238 -42 468 69 696 199 410 681 720 1170 753
224 15 424 -21 606 -108 86 -41 104 -47 99 -32 -3 11 -10 54 -14 96 -34 303
140 558 504 736 302 148 659 221 1075 221 605 -1 1039 -172 1174 -462 14 -30
26 -63 26 -72 0 -34 15 -17 59 67 149 287 436 549 749 685 303 131 653 175
1004 125z"/>
</g>
</svg>
